X: 11551
T: KELVIN GROVE
Q: "Moderate."
%R: reel
B: W. Hamilton "Universal Tune-Book" Vol. 1 Glasgow 1844 p.155 #1
S: http://imslp.org/wiki/Hamilton's_Universal_Tune-Book_(Various)
Z: 2016 John Chambers <jc:trillian.mit.edu>
M: C
L: 1/8
K: C
% - - - - - - - - - - - - - - - - - - - - - - - - -
(cd) |\
e<gd<e cBAG | A2(de) d2(cd) |\
e<gd<e cBAG | A2(c>d) c2 :|\
|: (de) |\
f>efg {fg}a2(ef) | g<edc {e}d2(cd) |\
e<gd<e cBAG | A2(c>d) c2 :|
% - - - - - - - - - - - - - - - - - - - - - - - - -

%%sep 1 1 500
%%sep 1 1 500

